X:2576
T:High Part of the Road, The
O:england
R:Jig
S:Josie Nugent,Clare (fiddle)
N:As played
D:Private tape
M:6/8
L:1/8
K:G
dc||A{dBA}B2 B{dcB}c2|ded cAG|E{GFE}F2 DED|DGG FGA|
A{dBA}B2 B{dcB}c2|dcA d2e|1 {a}fed cAF|AGF G2A:|2 f2d cAF|AGF GBd||
f{agf}g2 def|{agf}g2a bag|e{afe}f2 dfa|{b}afd cAG|
f{agf}g2 def|{agf}g2a bag|fed cAF|AGF GBd|
f{agf}g2 d{edc}d2|g2a bag|e{afe}f2 daa|{b}afd cAG|
f{agf}g2 def|{agf}g2a bag|f2d cAF|AGF G3||


